X: 253
T:Maids of Mitchellstown, The   ***
R:reel
D:Kevin Burke: Up Close.
Z:id:hn-reel-28
M:4/4
L:1/8
Q:1/4=100
K:Ddor
"Dm"D2AG "C"EGG2|"Dm"A2GA "C"cAGE|"Dm"D2AG "C"EGG2|"Am"(3ABc GE "Dm"EDD2
:||!
"Am"EGAB "C"c2BG|"Dm"Adde f2ed|"Am"cAGE "Dm"F3G|"Am"(3ABc GE "Dm"EDD2|!
"Am"EGAB "C"c2BG|"Dm"Adde f2ed|"Am"cAGE "Dm"F3G|"Am"(3ABc Bd "Am"cAGE||
<end>
<start>
